src/icons/solid/users/agent.svg

<svg width="24" height="24" viewBox="0 0 24 24" fill="none" xmlns="http://www.w3.org/2000/svg">
<g clip-path="url(#clip0_5032_1548)">
<path d="M7.90723 13.8311C8.30158 13.7319 8.72855 13.7815 9.0791 13.96C9.95581 14.3966 10.9536 14.6445 12.0166 14.6445C13.0794 14.6445 14.0765 14.3965 14.9531 13.96C15.3148 13.7913 15.7315 13.7318 16.126 13.8311H16.0928C19.49 14.6547 21.9999 17.4826 22 20.8564C22 22.0372 20.959 22.9999 19.666 23H4.33398C3.04096 22.9999 2 22.0472 2 20.8564C2.00006 17.4826 4.51001 14.6448 7.90723 13.8311Z" fill="#3C3B44"/>
<path d="M12.0166 1C16.1479 1.00017 19.501 4.10639 19.501 7.92676V8.50195C19.501 10.7247 17.5505 12.5409 15.1396 12.541H11.4023C10.712 12.5409 10.1533 12.0247 10.1533 11.3896C10.1534 10.7546 10.712 10.2384 11.4023 10.2383H12.6514C13.3418 10.2383 13.9013 10.7546 13.9014 11.3896H15.1504C16.86 11.3896 18.2627 10.0996 18.2627 8.50195V7.92676C18.2627 4.74142 15.4684 2.15144 12.0273 2.15137C8.58625 2.15137 5.79199 4.74137 5.79199 7.92676V8.50195C5.79199 8.81948 5.50669 9.07712 5.16699 9.07715C4.81631 9.07715 4.54199 8.8195 4.54199 8.50195V7.92676C4.54199 4.10628 7.88509 1 12.0166 1Z" fill="#3C3B44"/>
<path d="M12.0049 3.30176C14.7556 3.30176 16.9912 5.36654 16.9912 7.92676V8.50195C16.9912 9.45459 16.1583 10.2383 15.1172 10.2383H14.7891C14.3397 9.52389 13.5175 9.08789 12.6299 9.08789L12.6514 9.07715H11.4023C10.0216 9.07724 8.91529 10.1096 8.9043 11.3896V11.5186C7.76464 10.6652 7.01865 9.38537 7.01855 7.92676C7.01855 5.37659 9.25438 3.30196 12.0049 3.30176Z" fill="#3C3B44"/>
</g>
<defs>
<clipPath id="clip0_5032_1548">
<rect width="24" height="24" fill="white"/>
</clipPath>
</defs>
</svg>

<svg xmlns="http://www.w3.org/2000/svg" width="24" height="24" fill="none" viewBox="0 0 24 24"><g fill="currentColor" clip-path="url(#a)"><path d="M7.907 13.831c.395-.1.822-.05 1.172.129a6.6 6.6 0 0 0 2.938.684 6.6 6.6 0 0 0 2.936-.684 1.77 1.77 0 0 1 1.173-.129h-.033C19.49 14.655 22 17.483 22 20.856 22 22.037 20.959 23 19.666 23H4.334C3.041 23 2 22.047 2 20.856c0-3.373 2.51-6.211 5.907-7.025M12.017 1c4.13 0 7.484 3.106 7.484 6.927v.575c0 2.223-1.95 4.039-4.361 4.039h-3.738c-.69 0-1.249-.516-1.249-1.151s.559-1.152 1.25-1.152h1.248c.69 0 1.25.517 1.25 1.152h1.25c1.709 0 3.112-1.29 3.112-2.888v-.575c0-3.186-2.795-5.776-6.236-5.776s-6.235 2.59-6.235 5.776v.575c0 .317-.285.575-.625.575-.35 0-.625-.258-.625-.575v-.575C4.542 4.107 7.885 1 12.017 1"/><path d="M12.005 3.302c2.75 0 4.986 2.065 4.986 4.625v.575c0 .953-.833 1.736-1.874 1.736h-.328c-.45-.714-1.271-1.15-2.16-1.15l.022-.01h-1.249c-1.38 0-2.487 1.032-2.498 2.312v.129c-1.14-.854-1.885-2.134-1.885-3.592 0-2.55 2.235-4.625 4.986-4.625"/></g><defs><clipPath id="a"><path fill="currentColor" d="M0 0h24v24H0z"/></clipPath></defs></svg>
